the-plus-addons-for-block-editor/assets/images/preloader/progress-6.svg

<svg xmlns="http://www.w3.org/2000/svg" width="1000" height="700" fill="none" viewBox="0 0 1000 700"><path fill="#FCFCFF" d="M0 0h1000v700H0z"/><path fill="#D5D5D5" d="M500 525a175 175 0 1 1 0-350v20.21a154.79 154.79 0 1 0 0 309.58V525Z"/><path fill="#888" d="M500 175a175 175 0 1 1 0 350v-20.21a154.79 154.79 0 1 0 0-309.58V175Z"/><path fill="#888" d="M464.1 330.83h-23.45v13.93c.98-1.307 2.427-2.403 4.34-3.29a14.938 14.938 0 0 1 6.23-1.33c3.92 0 7.093.84 9.52 2.52 2.473 1.68 4.223 3.803 5.25 6.37 1.073 2.567 1.61 5.273 1.61 8.12 0 3.453-.677 6.533-2.03 9.24-1.307 2.66-3.29 4.76-5.95 6.3-2.613 1.54-5.833 2.31-9.66 2.31-5.087 0-9.17-1.26-12.25-3.78-3.08-2.52-4.923-5.857-5.53-10.01h7.77c.513 2.193 1.657 3.943 3.43 5.25 1.773 1.26 3.99 1.89 6.65 1.89 3.313 0 5.787-1.003 7.42-3.01 1.68-2.007 2.52-4.667 2.52-7.98 0-3.36-.84-5.927-2.52-7.7-1.68-1.82-4.153-2.73-7.42-2.73-2.287 0-4.223.583-5.81 1.75-1.54 1.12-2.66 2.66-3.36 4.62h-7.56v-29.47h30.8v7Zm11.807 17.99c0-8.073 1.353-14.373 4.06-18.9 2.753-4.573 7.467-6.86 14.14-6.86 6.673 0 11.363 2.287 14.07 6.86 2.753 4.527 4.13 10.827 4.13 18.9 0 8.167-1.377 14.56-4.13 19.18-2.707 4.573-7.397 6.86-14.07 6.86s-11.387-2.287-14.14-6.86c-2.707-4.62-4.06-11.013-4.06-19.18Zm28.56 0c0-3.78-.257-6.977-.77-9.59-.467-2.613-1.447-4.737-2.94-6.37-1.493-1.68-3.71-2.52-6.65-2.52-2.94 0-5.157.84-6.65 2.52-1.493 1.633-2.497 3.757-3.01 6.37-.467 2.613-.7 5.81-.7 9.59 0 3.92.233 7.21.7 9.87.467 2.66 1.447 4.807 2.94 6.44 1.54 1.633 3.78 2.45 6.72 2.45s5.157-.817 6.65-2.45c1.54-1.633 2.543-3.78 3.01-6.44.467-2.66.7-5.95.7-9.87Zm15.024-12.53c0-3.407.98-6.067 2.94-7.98 2.006-1.96 4.573-2.94 7.7-2.94 3.126 0 5.67.98 7.63 2.94 2.006 1.913 3.01 4.573 3.01 7.98s-1.004 6.09-3.01 8.05c-1.96 1.96-4.504 2.94-7.63 2.94-3.127 0-5.694-.98-7.7-2.94-1.96-1.96-2.94-4.643-2.94-8.05Zm42.7-10.01L534.261 375h-7.84l27.93-48.72h7.84Zm-32.06 3.92c-2.94 0-4.41 2.03-4.41 6.09 0 4.107 1.47 6.16 4.41 6.16 1.4 0 2.473-.49 3.22-1.47.793-1.027 1.19-2.59 1.19-4.69 0-4.06-1.47-6.09-4.41-6.09Zm17.85 34.72c0-3.407.98-6.067 2.94-7.98 2.006-1.96 4.573-2.94 7.7-2.94 3.08 0 5.6.98 7.56 2.94 2.006 1.913 3.01 4.573 3.01 7.98s-1.004 6.09-3.01 8.05c-1.96 1.96-4.48 2.94-7.56 2.94-3.127 0-5.694-.98-7.7-2.94-1.96-1.96-2.94-4.643-2.94-8.05Zm10.57-6.09c-2.94 0-4.41 2.03-4.41 6.09 0 4.06 1.47 6.09 4.41 6.09 2.94 0 4.41-2.03 4.41-6.09 0-4.06-1.47-6.09-4.41-6.09Z"/></svg>

<svg width="1000" height="700" viewBox="0 0 1000 700" fill="none" xmlns="http://www.w3.org/2000/svg">
<rect width="1000" height="700" fill="#FCFCFF"/>
<path d="M500 525C453.587 525 409.075 506.563 376.256 473.744C343.437 440.925 325 396.413 325 350C325 303.587 343.437 259.075 376.256 226.256C409.075 193.437 453.587 175 500 175L500 195.21C458.947 195.21 419.576 211.518 390.547 240.547C361.518 269.576 345.21 308.947 345.21 350C345.21 391.053 361.518 430.424 390.547 459.453C419.576 488.482 458.947 504.79 500 504.79L500 525Z" fill="#D5D5D5"/>
<path d="M500 175C546.413 175 590.925 193.437 623.744 226.256C656.563 259.075 675 303.587 675 350C675 396.413 656.563 440.925 623.744 473.744C590.925 506.563 546.413 525 500 525L500 504.79C541.053 504.79 580.424 488.482 609.453 459.453C638.482 430.424 654.79 391.053 654.79 350C654.79 308.947 638.482 269.576 609.453 240.547C580.424 211.518 541.053 195.21 500 195.21L500 175Z" fill="#888888"/>
<path d="M464.1 330.83H440.65V344.76C441.63 343.453 443.077 342.357 444.99 341.47C446.95 340.583 449.027 340.14 451.22 340.14C455.14 340.14 458.313 340.98 460.74 342.66C463.213 344.34 464.963 346.463 465.99 349.03C467.063 351.597 467.6 354.303 467.6 357.15C467.6 360.603 466.923 363.683 465.57 366.39C464.263 369.05 462.28 371.15 459.62 372.69C457.007 374.23 453.787 375 449.96 375C444.873 375 440.79 373.74 437.71 371.22C434.63 368.7 432.787 365.363 432.18 361.21H439.95C440.463 363.403 441.607 365.153 443.38 366.46C445.153 367.72 447.37 368.35 450.03 368.35C453.343 368.35 455.817 367.347 457.45 365.34C459.13 363.333 459.97 360.673 459.97 357.36C459.97 354 459.13 351.433 457.45 349.66C455.77 347.84 453.297 346.93 450.03 346.93C447.743 346.93 445.807 347.513 444.22 348.68C442.68 349.8 441.56 351.34 440.86 353.3H433.3V323.83H464.1V330.83ZM475.907 348.82C475.907 340.747 477.26 334.447 479.967 329.92C482.72 325.347 487.434 323.06 494.107 323.06C500.78 323.06 505.47 325.347 508.177 329.92C510.93 334.447 512.307 340.747 512.307 348.82C512.307 356.987 510.93 363.38 508.177 368C505.47 372.573 500.78 374.86 494.107 374.86C487.434 374.86 482.72 372.573 479.967 368C477.26 363.38 475.907 356.987 475.907 348.82ZM504.467 348.82C504.467 345.04 504.21 341.843 503.697 339.23C503.23 336.617 502.25 334.493 500.757 332.86C499.264 331.18 497.047 330.34 494.107 330.34C491.167 330.34 488.95 331.18 487.457 332.86C485.964 334.493 484.96 336.617 484.447 339.23C483.98 341.843 483.747 345.04 483.747 348.82C483.747 352.74 483.98 356.03 484.447 358.69C484.914 361.35 485.894 363.497 487.387 365.13C488.927 366.763 491.167 367.58 494.107 367.58C497.047 367.58 499.264 366.763 500.757 365.13C502.297 363.497 503.3 361.35 503.767 358.69C504.234 356.03 504.467 352.74 504.467 348.82ZM519.491 336.29C519.491 332.883 520.471 330.223 522.431 328.31C524.437 326.35 527.004 325.37 530.131 325.37C533.257 325.37 535.801 326.35 537.761 328.31C539.767 330.223 540.771 332.883 540.771 336.29C540.771 339.697 539.767 342.38 537.761 344.34C535.801 346.3 533.257 347.28 530.131 347.28C527.004 347.28 524.437 346.3 522.431 344.34C520.471 342.38 519.491 339.697 519.491 336.29ZM562.191 326.28L534.261 375H526.421L554.351 326.28H562.191ZM530.131 330.2C527.191 330.2 525.721 332.23 525.721 336.29C525.721 340.397 527.191 342.45 530.131 342.45C531.531 342.45 532.604 341.96 533.351 340.98C534.144 339.953 534.541 338.39 534.541 336.29C534.541 332.23 533.071 330.2 530.131 330.2ZM547.981 364.92C547.981 361.513 548.961 358.853 550.921 356.94C552.927 354.98 555.494 354 558.621 354C561.701 354 564.221 354.98 566.181 356.94C568.187 358.853 569.191 361.513 569.191 364.92C569.191 368.327 568.187 371.01 566.181 372.97C564.221 374.93 561.701 375.91 558.621 375.91C555.494 375.91 552.927 374.93 550.921 372.97C548.961 371.01 547.981 368.327 547.981 364.92ZM558.551 358.83C555.611 358.83 554.141 360.86 554.141 364.92C554.141 368.98 555.611 371.01 558.551 371.01C561.491 371.01 562.961 368.98 562.961 364.92C562.961 360.86 561.491 358.83 558.551 358.83Z" fill="#888888"/>
</svg>
